X: 980
T: Havada Bulut Yok
C: (Anonim)
O: Turkey
F: http://compmusic.upf.edu/node/140
N: huseyni--turku--curcuna--havada_bulut--
N: makam= huseyni
N: form= turku
N: usul= curcuna = 10/8
M: 10/8
L: 1/16
K: C _2/4B ^3/4f  
Q: 1/4=180
%%MIDI tuningsystem comma53
z4 e2e2 d2d4e2 ced2  | d3c d2d2 c2c2 B2d2 Bdc2  | \
w:   |   | 
c3B c2c2 B2B2 A2c4B2  | 
w:   | 
B2A2 c2B2 A2A4{A}B4A2  | A4 A6A4A6  | \
w:   |   | 
z4 e2e2 d2d4e2 ced2  | 
w:   | 
d3c d2d2 c2c2 B2d2 Bdc2  | c3B c2c2 B2B2 A2c4B2  | \
w:   |   | 
B2A2 c2B2 A2A4{A}B4A2  | 
w:   | 
A4 A6A4A6  | z4 c2d4e4e6  | e8-e2e=f dede ded2  | \
w:   |  Ha va da  bu  |  lut  yok   | 
d2z2 g2g2 d2d4e2 ced2  | 
w:  *  bu  ne  *  du man  | 
d4 c2d4e4e6  | e8-e2e=f dede ded2  | \
w:  dır   Meh le de  ö  |  lüm  yok   | 
d2z2 g2g2 d2d4e2 ced2  | 
w:  *  bu  ne  *  şi van  | 
d4 c2d4e4e6  | e8-e2e=f dede ded2  | \
w:  dır   Şu  Ye men  el  |  le ri   | 
d2z2 g2g2 d2d4e2 ced2  | 
w:  *  ne  de  *  ya man  | 
d3c e2e2 d2d4e2 ced2  | d3c d2d2 B2c2 B2d2 Bdc2  | 
w:  dır   A no  *  Ye men  |  dir  *  gü lü  *  çe *  men  | 
c3B c2c2 B2B2 A2c4B2  | B2A2 c2B2 A2A4{A}B4A2  | A16-A4  | \
w:  dir   *  Gi den  *  gel *  mi  |  yor  *  a cep  *  ne *  den  |  dir    | 
d3c e2e2 d2d4e2 ced2  | 
w:  SAZ Bu ra *  sı  Muş  | 
d3c d2d2 B2c2 B2d2 Bdc2  | c3B c2c2 B2B2 A2c4B2  | \
w:  tur  *  yo lu  *  yo *  kuş  |  tur   *  Gi den  *  gel *  mi  | 
B2A2 c2B2 A2A4{A}B4A2  | 
w:  yor  *  a cep  *  ne *  iş  | 
A16-A4  | z4 e2e2 d2d4e2 ced2  | d3c d2d2 c2c2 B2d2 Bdc2  | 
w:  dir    |   |   | 
c3B c2c2 B2B2 A2c4B2  | B2A2 c2B2 A2A4{A}B4A2  | \
w:   |   | 
A4 A6A4A6  | 
w:   | 
z4 e2e2 d2d4e2 ced2  | d3c d2d2 c2c2 B2d2 Bdc2  | \
w:   |   | 
c3B c2c2 B2B2 A2c4B2  | 
w:   | 
B2A2 c2B2 A2A4{A}B4A2  | A4 A6A4A6  | \
w:   |   | 
z4 c2d4e4e6  | e8-e2e=f dede ded2  | 
w:  Ha va da  bu  |  lut  yok   | 
d2z2 g2g2 d2d4e2 ced2  | d4 c2d4e4e6  | \
w:  *  bu  ne  *  du man  |  dır   Meh le de  ö  | 
e8-e2e=f dede ded2  | 
w:  lüm  yok   | 
d2z2 g2g2 d2d4e2 ced2  | d4 c2d4e4e6  | \
w:  *  bu  ne  *  şi van  |  dır   Şu  Ye men  el  | 
e8-e2e=f dede ded2  | 
w:  le ri   | 
d2z2 g2g2 d2d4e2 ced2  | d3c e2e2 d2d4e2 ced2  | \
w:  *  ne  de  *  ya man  |  dır   A no  *  Ye men  | 
d3c d2d2 B2c2 B2d2 Bdc2  | 
w:  dir  *  gü lü  *  çe *  men  | 
c3B c2c2 B2B2 A2c4B2  | B2A2 c2B2 A2A4{A}B4A2  | A16-A4  | \
w:  dir   *  Gi den  *  gel *  mi  |  yor  *  a cep  *  ne *  den  |  dir    | 
d3c e2e2 d2d4e2 ced2  | 
w:  SAZ Bu ra *  sı  Muş  | 
d3c d2d2 B2c2 B2d2 Bdc2  | c3B c2c2 B2B2 A2c4B2  | \
w:  tur  *  yo lu  *  yo *  kuş  |  tur   *  Gi den  *  gel *  mi  | 
B2A2 c2B2 A2A4{A}B4A2  | 
w:  yor  *  a cep  *  ne *  iş  | 
A16-A4  | |


